assets/img/ods/SDG-6.svg

<svg width="720" height="720" viewBox="0 0 720 720" fill="none" xmlns="http://www.w3.org/2000/svg">
<g clip-path="url(#clip0_342_63)">
<path d="M-1.08008 -1.08002H721.08V721.08H-1.08008V-1.08002Z" fill="#BBBBBB"/>
<path d="M57.1602 156.08V107.08C57.1602 80.26 64.6402 60 94.2202 60C119.55 60 128.9 72.41 129.07 94.85V97.23H104.25C104.25 85.67 103.06 80.06 94.3902 80.06C86.0602 80.06 83.8502 86.69 83.8502 107.94V121.88C86.7402 116.95 93.3702 114.06 101.53 113.88C123.46 113.54 131.28 130.71 131.28 153.49C131.28 181.54 122.44 201.26 94.3902 201.26C68.0002 201.3 57.1602 182.09 57.1602 156.08ZM104.93 158C104.93 144.06 104.59 134 94.3902 134C92.2428 134.063 90.1472 134.674 88.3025 135.775C86.4577 136.876 84.9251 138.43 83.8502 140.29V162.2C83.8502 172.57 86.0602 181.75 94.5602 181.75C103.23 181.75 104.93 173.08 104.93 158ZM196.83 61.63H207.1L217.63 114.28H208.73L206.64 102.12H197.48L195.33 114.28H186.33L196.83 61.63ZM205.6 96L202 73.91L198.45 96H205.6ZM203.26 45H212.26L204.5 58H199.36L203.26 45ZM221.2 96.92V79.24C221.2 67.93 224.65 61.04 236.2 61.04C246.99 61.04 250.76 66.63 250.76 76.38V79.11H241.59V76.11C241.59 71.04 241.07 68.05 236.33 68.05C231.26 68.05 230.87 72.15 230.87 76.96V99C230.87 104.46 231.87 107.91 236.59 107.91C241.31 107.91 242.37 104.27 242.37 98.55V93.61H236.72V87.61H251V114.33H244.8L244.15 109.19C242.72 112.57 240.15 115.04 235.24 115.04C224.84 115 221.2 108 221.2 96.92ZM257.67 97.25V61.63H267V98.35C267 103.35 267.58 107.84 272.46 107.84C277.34 107.84 277.98 103.36 277.98 98.35V61.63H287.28V97.25C287.28 108.25 284.22 114.99 272.46 114.99C260.7 114.99 257.67 108.3 257.67 97.25ZM302.13 61.63H312.4L322.93 114.28H314L311.92 102.12H302.76L300.61 114.28H291.61L302.13 61.63ZM310.9 96L307.33 73.9L303.75 96H310.9ZM343.34 61.63H358.81C368.23 61.63 372.26 67.09 372.26 76.58C372.26 86.91 366.67 90.88 358.16 90.88H352.89V114.28H343.34V61.63ZM356.6 84.12C361.86 84.12 363.23 82.12 363.23 76.51C363.23 70.9 362.51 68.39 356.6 68.39H352.89V84.12H356.6ZM376.42 97.77V78C376.42 67.34 380.32 61 391.63 61C402.94 61 406.78 67.31 406.78 78V97.77C406.78 108.36 402.88 114.99 391.63 114.99C380.38 114.99 376.42 108.43 376.42 97.77ZM397 100V75.8C397 71.38 396.28 68.06 391.6 68.06C386.92 68.06 386.14 71.38 386.14 75.8V100C386.14 104.36 386.86 107.87 391.6 107.87C396.34 107.87 397 104.4 397 100ZM418.54 68.71H410.16V61.63H436.35V68.71H428.16V114.28H418.54V68.71ZM447.4 61.63H457.67L468.2 114.28H459.3L457.22 102.12H448.05L445.91 114.28H436.91L447.4 61.63ZM456.18 96L452.6 73.9L449 96H456.18ZM453.84 45H462.84L455.1 58H449.97L453.84 45ZM468.72 61.63H477.17L484.17 98.87L490.73 61.63H499.38L488.78 114.28H479.35L468.72 61.63ZM504.4 61.63H526.5V68.39H514V83.53H523.88V90.23H514V107.71H526.68V114.28H504.4V61.63ZM531.9 61.63H541.45V107.71H554.26V114.28H531.9V61.63ZM189 147.63H211.1V154.39H198.52V169.53H208.4V176.23H198.52V193.71H211.19V200.28H189V147.63ZM230.63 184.94L238.88 183.31C239.14 189.55 240.64 193.58 244.88 193.58C247.94 193.58 249.24 191.5 249.24 188.64C249.24 184.09 246.9 181.56 243.45 178.57L236.82 172.78C233.05 169.53 230.71 165.89 230.71 160.04C230.71 151.72 235.91 147.04 244.3 147.04C254.18 147.04 256.97 153.67 257.5 161.34L249.24 162.77C249.04 157.83 248.33 154.13 244.1 154.13C241.24 154.13 239.68 156.27 239.68 159.07C239.68 162.64 241.18 164.59 243.97 167L250.54 172.78C254.83 176.49 258.41 181.1 258.41 188.06C258.41 195.66 253.07 200.99 245.21 200.99C235.57 201 231 195.4 230.63 184.94ZM271.32 147.63H281.59L292.12 200.28H283.21L281.13 188.12H272L269.85 200.28H260.85L271.32 147.63ZM280.09 182L276.52 159.9L272.94 182H280.09ZM297.06 147.63H303.75L316.56 177.63V147.63H324.49V200.28H318.12L305.25 168.82V200.28H297.06V147.63ZM332.16 147.63H354.26V154.39H341.71V169.53H351.59V176.23H341.71V193.71H354.39V200.28H332.16V147.63ZM367.52 147.63H377.79L388.32 200.28H379.41L377.33 188.12H368.17L366 200.28H357L367.52 147.63ZM376.29 182L372.72 159.9L369.14 182H376.29ZM394 147.63H404L411.48 184.09L419.21 147.63H428.9L429.9 200.28H422.7L421.92 163.68L414.45 200.28H408.66L401.06 163.55L400.34 200.28H393.13L394 147.63ZM437.33 147.63H459.43V154.39H446.88V169.53H456.76V176.23H446.88V193.71H459.56V200.28H437.33V147.63ZM464.82 147.63H471.52L484.32 177.63V147.63H492.25V200.28H485.88L473 168.82V200.28H464.81L464.82 147.63ZM505.19 154.71H496.8V147.63H523V154.71H514.81V200.28H505.19V154.71ZM526.37 183.77V164C526.37 153.34 530.27 147 541.58 147C552.89 147 556.73 153.31 556.73 164V183.76C556.73 194.35 552.83 200.98 541.58 200.98C530.33 200.98 526.37 194.43 526.37 183.77ZM547 186V161.8C547 157.38 546.29 154.06 541.6 154.06C536.91 154.06 536.15 157.38 536.15 161.8V186C536.15 190.36 536.86 193.87 541.6 193.87C546.34 193.87 547 190.4 547 186ZM493.61 290.61C493.307 290.285 492.938 290.027 492.527 289.855C492.117 289.683 491.675 289.599 491.23 289.61H228C227.557 289.604 227.118 289.689 226.71 289.861C226.302 290.034 225.935 290.288 225.63 290.61C225.356 290.958 225.156 291.358 225.042 291.787C224.929 292.215 224.904 292.662 224.97 293.1L269.19 560.54C269.309 561.253 269.675 561.902 270.223 562.373C270.771 562.845 271.467 563.109 272.19 563.12H326.46L330.17 606.68H307.33L360.47 659.82L413.74 606.57H390.91L394.61 563.08H449.84C450.574 563.086 451.285 562.823 451.838 562.34C452.391 561.857 452.747 561.188 452.84 560.46L494.21 293.06C494.284 292.632 494.269 292.194 494.166 291.772C494.063 291.351 493.874 290.955 493.61 290.61ZM391.89 504.72C387.668 508.575 382.707 511.533 377.308 513.415C371.909 515.298 366.184 516.065 360.48 515.67C354.773 516.068 349.044 515.303 343.641 513.421C338.238 511.539 333.274 508.579 329.05 504.72C309.33 485.02 316.36 460.51 323.23 447.84C327.46 439.91 357.76 394.42 360.37 390.55V390.24L360.48 390.39L360.59 390.24V390.55C363.13 394.42 393.47 439.91 397.71 447.84C404.58 460.51 411.59 485 391.89 504.72ZM475.38 346.88C468.25 343.74 459.21 344.88 450.53 348.39C417.87 361.63 395.64 366.39 361.29 355.63C339.66 348.86 319.43 334.68 295.5 343.31C279.63 349.02 264.83 354.47 246.88 354.31L236.52 301.16H482.84L475.38 346.88Z" fill="white"/>
</g>
<defs>
<clipPath id="clip0_342_63">
<rect width="720" height="720" fill="white"/>
</clipPath>
</defs>
</svg>

<svg xmlns="http://www.w3.org/2000/svg" viewBox="0 0 720 720"><defs><style>.cls-2{fill:#fff}</style></defs><path fill="#26bde2" d="M-1.08-1.08h722.16v722.16H-1.08z" id="goal_background" data-name="goal background"/><g id="ENG_text_graphics" data-name="ENG text &amp; graphics"><path class="cls-2" d="M57.16 156.08v-49C57.16 80.26 64.64 60 94.22 60c25.33 0 34.68 12.41 34.85 34.85v2.38h-24.82c0-11.56-1.19-17.17-9.86-17.17-8.33 0-10.54 6.63-10.54 27.88v13.94c2.89-4.93 9.52-7.82 17.68-8 21.93-.34 29.75 16.83 29.75 39.61 0 28.05-8.84 47.77-36.89 47.77-26.39.04-37.23-19.17-37.23-45.18zm47.77 1.92c0-13.94-.34-24-10.54-24a12.6 12.6 0 00-10.54 6.29v21.91c0 10.37 2.21 19.55 10.71 19.55 8.67 0 10.37-8.67 10.37-23.75zM196.83 61.63h10.27l10.53 52.65h-8.9l-2.09-12.16h-9.16l-2.15 12.16h-9zM205.6 96L202 73.91 198.45 96zm-2.34-51h9l-7.76 13h-5.14zM221.2 96.92V79.24c0-11.31 3.45-18.2 15-18.2 10.79 0 14.56 5.59 14.56 15.34v2.73h-9.17v-3c0-5.07-.52-8.06-5.26-8.06-5.07 0-5.46 4.1-5.46 8.91V99c0 5.46 1 8.91 5.72 8.91s5.78-3.64 5.78-9.36v-4.94h-5.65v-6H251v26.72h-6.2l-.65-5.14c-1.43 3.38-4 5.85-8.91 5.85-10.4-.04-14.04-7.04-14.04-18.12zM257.67 97.25V61.63H267v36.72c0 5 .58 9.49 5.46 9.49s5.52-4.48 5.52-9.49V61.63h9.3v35.62c0 11-3.06 17.74-14.82 17.74s-14.79-6.69-14.79-17.74zM302.13 61.63h10.27l10.53 52.65H314l-2.08-12.16h-9.16l-2.15 12.16h-9zM310.9 96l-3.57-22.1-3.58 22.1zM343.34 61.63h15.47c9.42 0 13.45 5.46 13.45 14.95 0 10.33-5.59 14.3-14.1 14.3h-5.27v23.4h-9.55zm13.26 22.49c5.26 0 6.63-2 6.63-7.61s-.72-8.12-6.63-8.12h-3.71v15.73zM376.42 97.77V78c0-10.66 3.9-17 15.21-17s15.15 6.31 15.15 17v19.77c0 10.59-3.9 17.22-15.15 17.22s-15.21-6.56-15.21-17.22zM397 100V75.8c0-4.42-.72-7.74-5.4-7.74s-5.46 3.32-5.46 7.74V100c0 4.36.72 7.87 5.46 7.87s5.4-3.47 5.4-7.87zM418.54 68.71h-8.38v-7.08h26.19v7.08h-8.19v45.57h-9.62zM447.4 61.63h10.27l10.53 52.65h-8.9l-2.08-12.16h-9.17l-2.14 12.16h-9zM456.18 96l-3.58-22.1L449 96zm-2.34-51h9l-7.74 13h-5.13zM468.72 61.63h8.45l7 37.24 6.56-37.24h8.65l-10.6 52.65h-9.43zM504.4 61.63h22.1v6.76H514v15.14h9.88v6.7H514v17.48h12.68v6.57H504.4zM531.9 61.63h9.55v46.08h12.81v6.57H531.9zM189 147.63h22.1v6.76h-12.58v15.14h9.88v6.7h-9.88v17.48h12.67v6.57H189zM230.63 184.94l8.25-1.63c.26 6.24 1.76 10.27 6 10.27 3.06 0 4.36-2.08 4.36-4.94 0-4.55-2.34-7.08-5.79-10.07l-6.63-5.79c-3.77-3.25-6.11-6.89-6.11-12.74 0-8.32 5.2-13 13.59-13 9.88 0 12.67 6.63 13.2 14.3l-8.26 1.43c-.2-4.94-.91-8.64-5.14-8.64-2.86 0-4.42 2.14-4.42 4.94 0 3.57 1.5 5.52 4.29 7.93l6.57 5.78c4.29 3.71 7.87 8.32 7.87 15.28 0 7.6-5.34 12.93-13.2 12.93-9.64.01-14.21-5.59-14.58-16.05zM271.32 147.63h10.27l10.53 52.65h-8.91l-2.08-12.16H272l-2.15 12.16h-9zm8.77 34.37l-3.57-22.1-3.58 22.1zM297.06 147.63h6.69l12.81 30v-30h7.93v52.65h-6.37l-12.87-31.46v31.46h-8.19zM332.16 147.63h22.1v6.76h-12.55v15.14h9.88v6.7h-9.88v17.48h12.68v6.57h-22.23zM367.52 147.63h10.27l10.53 52.65h-8.91l-2.08-12.16h-9.16L366 200.28h-9zm8.77 34.37l-3.57-22.1-3.58 22.1zM394 147.63h10l7.48 36.46 7.73-36.46h9.69l1 52.65h-7.2l-.78-36.6-7.47 36.6h-5.79l-7.6-36.73-.72 36.73h-7.21zM437.33 147.63h22.1v6.76h-12.55v15.14h9.88v6.7h-9.88v17.48h12.68v6.57h-22.23zM464.82 147.63h6.7l12.8 30v-30h7.93v52.65h-6.37L473 168.82v31.46h-8.19zM505.19 154.71h-8.39v-7.08H523v7.08h-8.19v45.57h-9.62zM526.37 183.77V164c0-10.66 3.9-17 15.21-17s15.15 6.31 15.15 17v19.76c0 10.59-3.9 17.22-15.15 17.22s-15.21-6.55-15.21-17.21zM547 186v-24.2c0-4.42-.71-7.74-5.4-7.74s-5.45 3.32-5.45 7.74V186c0 4.36.71 7.87 5.45 7.87s5.4-3.47 5.4-7.87zM493.61 290.61a3.15 3.15 0 00-2.38-1H228a3.2 3.2 0 00-2.37 1 3.24 3.24 0 00-.66 2.49l44.22 267.44a3.09 3.09 0 003 2.58h54.27l3.71 43.56h-22.84l53.14 53.14 53.27-53.25h-22.83l3.7-43.49h55.23a3 3 0 003-2.62l41.37-267.4a3.15 3.15 0 00-.6-2.45zM391.89 504.72a42.26 42.26 0 01-31.41 10.95 42.24 42.24 0 01-31.43-10.95c-19.72-19.7-12.69-44.21-5.82-56.88 4.23-7.93 34.53-53.42 37.14-57.29v-.31l.11.15.11-.15v.31c2.54 3.87 32.88 49.36 37.12 57.29 6.87 12.67 13.88 37.16-5.82 56.88zm83.49-157.84c-7.13-3.14-16.17-2-24.85 1.51-32.66 13.24-54.89 18-89.24 7.24-21.63-6.77-41.86-20.95-65.79-12.32-15.87 5.71-30.67 11.16-48.62 11l-10.36-53.15h246.32z"/></g></svg>
